X:1
T: Miss Alison O'Connor
C:
R:Reel
Q: 232
K:A
M:4/4
L:1/8
|:AB|cA, CE Ac ea|fe df e2 dc|da fd ca ec|dB cA B2 AB|
cA, CE Ac ea|fe df e2 dc|da fd ca ec|dB cA A2:|
|:ag|fA df ba gf|eA cf e2 dc|BE GB ed cB|ce ^df e2 ag|
fA df ba gf|ec AF E2 ^DE|FA GF Ge dB|c2 A2 A2:|
